X: 30677
T: Opinions Of Paddy Magee, The
R: jig
M: 6/8
K: Dmajor
FDD FDD|FGF FED|AFF dFF|EFE DAG|
FDD FDD|FGF FED|AFF dFF|1 DED DAG:|2 DED D2e||
fdd ecc|BdB AGF|fda eca|dBg a3
fdd ecc|BdB AGF|AFF dFF|1 DED D2 e:|2 DED D3||

